svg/black/req.svg

<?xml version="1.0" encoding="UTF-8"?>
<svg width="32px" height="32px" viewBox="0 0 32 32" version="1.1" xmlns="http://www.w3.org/2000/svg" xmlns:xlink="http://www.w3.org/1999/xlink">
    <title>svg/black/req</title>
    <g id="black/req" stroke="none" stroke-width="1" fill="none" fill-rule="evenodd">
        <g id="Group" fill="#000000" fill-rule="nonzero">
            <path d="M16,-3.3553407e-15 C24.836556,-3.3553407e-15 32,7.163444 32,16 C32,24.836556 24.836556,32 16,32 C7.163444,32 0,24.836556 0,16 C0,7.163444 7.163444,-3.3553407e-15 16,-3.3553407e-15 Z M23.0734489,7.5 L10.2959137,7.5 C9.26274467,7.5 8.5,8.28072495 8.5,9.34621791 L8.5,22.6768517 C8.49428396,23.1344606 8.67356709,23.5750229 8.99728461,23.898515 C9.28053744,24.1815706 9.65334515,24.3539812 10.0486806,24.3885251 L10.219294,24.3948095 C10.6772887,24.4026682 11.1188389,24.2241943 11.4427377,23.9002954 C11.7666365,23.5763966 11.9451104,23.1348464 11.9372517,22.6768517 L11.9372517,10.7888235 L20.435,10.788 L15.4126742,15.800232 C15.0933263,16.1167675 14.9136802,16.5477732 14.9136802,16.9974151 C14.9136802,17.447057 15.0933263,17.8780627 15.4126742,18.1945982 L21.1483785,23.9123447 C21.5760908,24.3379184 22.1983542,24.502983 22.780768,24.3453601 C23.3631819,24.1877373 23.8172637,23.7313737 23.9719652,23.148177 C24.1266668,22.5649804 23.9584852,21.9435522 23.5307728,21.5179785 L18.9934489,16.9950207 L23.2338714,12.7677672 C23.5520991,12.4507534 23.7305273,12.0197673 23.7295052,11.5705841 L23.7366883,8.15382354 C23.736289,7.97854171 23.6685736,7.81011048 23.5475334,7.68333058 L23.544,7.686 L23.4691233,7.62290943 C23.3548441,7.54064696 23.216115,7.49695591 23.0734489,7.5 Z" id="Combined-Shape"></path>
        </g>
    </g>
</svg>

<svg width="32" height="32" viewBox="0 0 32 32" xmlns="http://www.w3.org/2000/svg"><path d="M16 0c8.837 0 16 7.163 16 16s-7.163 16-16 16S0 24.837 0 16 7.163 0 16 0zm7.073 7.5H10.296C9.263 7.5 8.5 8.28 8.5 9.346v13.33a1.697 1.697 0 001.549 1.713l.17.006a1.69 1.69 0 001.718-1.718V10.789l8.498-.001-5.022 5.012a1.686 1.686 0 000 2.395l5.735 5.717a1.689 1.689 0 002.383-2.394l-4.538-4.523 4.24-4.227c.32-.317.498-.748.497-1.197l.007-3.417a.684.684 0 00-.19-.47l-.003.002-.075-.063a.653.653 0 00-.396-.123z"/></svg>
